X: 116
T: Mr. Isaac's Maggot
M:3/2s
L:1/8
Q:160
S:Playford
O:Manuscript
A:English
K:C
g4 e4 d4|cd e2 d2 c2 d2 G2|G2 c4 B2 A4| A2 d4 A2 B2G2| g4 e4 d4|cd e2 d2 c2 d2 G2|G2 c4 B2 A2 fg| d2 c2 d2 B2 c4:|
|: E2 G4 A2 G4| E2 G4 AB C2 G2| E2 G4 A2 G4| E2 G4 AB C2 G2| g3 f/2g/2 a3 g/2f/2 g3 f/2g/2|agfe fedc d2 G2|g3 f/2g/2 a3 g/2f/2 g3 f/2 g/2| agfe fedc d2 G2|g4 f2 e/2f/2 g4|cd e2 d2 c2 d2 G2|e4 f2 e/2f/2 g4| G2 c2 cd e2 d2 c2:|

